src/components/SVGLibraries/AppIconLibrary/icon-files/light-theme/DataPrivacyPassports.svg

<svg xmlns="http://www.w3.org/2000/svg" viewBox="0 0 32 32"><defs><linearGradient id="a" x1="206" y1="-27" x2="217" y2="-27" gradientTransform="translate(-184.5 41.5)" gradientUnits="userSpaceOnUse"><stop offset=".3"/><stop offset="1" stop-opacity="0"/></linearGradient><linearGradient id="c" y1="32" x2="32" gradientUnits="userSpaceOnUse"><stop offset=".1" stop-color="#08bdba"/><stop offset=".9" stop-color="#0f62fe"/></linearGradient><mask id="b" x="0" y="0" width="32" height="32" maskUnits="userSpaceOnUse"><path d="M14 20h-2v-2H8v2H6v-2a2 2 0 012-2h4a2 2 0 012 2zm-4-5a3 3 0 113-3 3 3 0 01-3 3zm0-4a1 1 0 101 1 1 1 0 00-1-1zm6-2h7v2h-7zm0 4h4v2h-4z" fill="#fff"/><path d="M16 23H4V6h22v13h2V6a2 2 0 00-2-2H4a2 2 0 00-2 2v17a2 2 0 002 2h12z" fill="#fff"/><path transform="rotate(-90 27 14.5)" fill="url(#a)" d="M21.5 12.5h11v4h-11z"/></mask></defs><g data-name="Layer 2"><g data-name="Build icon here"><g mask="url(#b)"><path fill="url(#c)" d="M0 0h32v32H0z"/></g><path d="M29 22h-1v-2.818A3.356 3.356 0 0024.5 16a3.356 3.356 0 00-3.5 3.182V22h-1a1 1 0 00-1 1v6a1 1 0 001 1h9a1 1 0 001-1v-6a1 1 0 00-1-1zm-6-2.818A1.388 1.388 0 0124.5 18a1.388 1.388 0 011.5 1.182V22h-3zM28 28h-7v-4h7z" fill="#001d6c"/></g></g></svg>

<svg id="Build_icon_here" data-name="Build icon here" xmlns="http://www.w3.org/2000/svg" xmlns:xlink="http://www.w3.org/1999/xlink" viewBox="0 0 32 32">
  <defs>
    <linearGradient id="linear-gradient" x1="280" y1="-101" x2="291" y2="-101" gradientTransform="translate(-258.5 115.5)" gradientUnits="userSpaceOnUse">
      <stop offset="0.3"/>
      <stop offset="1" stop-opacity="0"/>
    </linearGradient>
    <mask id="mask" x="0" y="0" width="32" height="32" maskUnits="userSpaceOnUse">
      <g>
        <path d="M14,20H12V18H8v2H6V18a2,2,0,0,1,2-2h4a2,2,0,0,1,2,2Z" style="fill: #fff"/>
        <path d="M10,15a3,3,0,1,1,3-3A3,3,0,0,1,10,15Zm0-4a1,1,0,1,0,1,1A1,1,0,0,0,10,11Z" style="fill: #fff"/>
        <rect x="16" y="9" width="7" height="2" style="fill: #fff"/>
        <rect x="16" y="13" width="4" height="2" style="fill: #fff"/>
        <path d="M16,23H4V6H26V19h2V6a2,2,0,0,0-2-2H4A2,2,0,0,0,2,6V23a2,2,0,0,0,2,2H16Z" style="fill: #fff"/>
        <rect x="21.5" y="12.5" width="11" height="4" transform="translate(12.5 41.5) rotate(-90)" style="fill: url(#linear-gradient)"/>
      </g>
    </mask>
    <linearGradient id="linear-gradient-2" y1="32" x2="32" gradientUnits="userSpaceOnUse">
      <stop offset="0.1" stop-color="#08bdba"/>
      <stop offset="0.9" stop-color="#0f62fe"/>
    </linearGradient>
  </defs>
  <g>
    <g style="mask: url(#mask)">
      <rect width="32" height="32" style="fill: url(#linear-gradient-2)"/>
    </g>
    <path d="M29,22H28V19.5a3.5,3.5,0,0,0-7,0V22H20a1,1,0,0,0-1,1v6a1,1,0,0,0,1,1h9a1,1,0,0,0,1-1V23A1,1,0,0,0,29,22Zm-4.5-4A1.5,1.5,0,0,1,26,19.5V22H23V19.5A1.5,1.5,0,0,1,24.5,18ZM28,28H21V24h7Z" style="fill: #001d6c"/>
  </g>
</svg>
